svgs/thin/game-board.svg

<svg xmlns="http://www.w3.org/2000/svg" viewBox="0 0 448 512"><!--! Font Awesome Pro 6.3.0 by @fontawesome - https://fontawesome.com License - https://fontawesome.com/license (Commercial License) Copyright 2023 Fonticons, Inc. --><path d="M384 32h-320c-35.35 0-64 28.65-64 64v320c0 35.35 28.65 64 64 64h320c35.35 0 64-28.65 64-64V96C448 60.65 419.3 32 384 32zM432 416c0 26.47-21.53 48-47.1 48h-320c-26.47 0-48-21.53-48-48V96c0-26.47 21.53-48 48-48h320c26.47 0 47.1 21.53 47.1 48V416zM384 168c4.406 0 8-3.594 8-8s-3.594-8-8-8h-56V96c0-4.406-3.594-8-8-8s-8 3.594-8 8v56h-80V96c0-4.406-3.594-8-8-8s-8 3.594-8 8v56h-80V96c0-4.406-3.594-8-8-8s-8 3.594-8 8v56h-56c-4.406 0-8 3.594-8 8s3.594 8 8 8h56v80h-56c-4.406 0-8 3.594-8 8s3.594 8 8 8h56v80h-56c-4.406 0-8 3.594-8 8s3.594 8 8 8h56V416c0 4.406 3.594 8 8 8s8-3.594 8-8v-56h80V416c0 4.406 3.594 8 8 8s8-3.594 8-8v-56h80V416c0 4.406 3.594 8 8 8s8-3.594 8-8v-56h56c4.406 0 8-3.594 8-8s-3.594-8-8-8h-56v-80h56c4.406 0 8-3.594 8-8s-3.594-8-8-8h-56v-80H384zM216 344h-80v-80h80V344zM216 248h-80v-80h80V248zM312 344h-80v-80h80V344zM312 248h-80v-80h80V248z"/></svg>

<svg xmlns="http://www.w3.org/2000/svg" viewBox="0 0 448 512"><!-- Font Awesome Pro 6.0.0-alpha2 by @fontawesome - https://fontawesome.com License - https://fontawesome.com/license (Commercial License) --><path d="M384 32H64C28.654 32 0 60.652 0 96V416C0 451.348 28.654 480 64 480H384C419.346 480 448 451.348 448 416V96C448 60.652 419.346 32 384 32ZM432 416C432 442.469 410.467 464 384 464H64C37.533 464 16 442.469 16 416V96C16 69.531 37.533 48 64 48H384C410.467 48 432 69.531 432 96V416ZM384 168C388.406 168 392 164.406 392 160S388.406 152 384 152H328V96C328 91.594 324.406 88 320 88S312 91.594 312 96V152H232V96C232 91.594 228.406 88 224 88S216 91.594 216 96V152H136V96C136 91.594 132.406 88 128 88S120 91.594 120 96V152H64C59.594 152 56 155.594 56 160S59.594 168 64 168H120V248H64C59.594 248 56 251.594 56 256S59.594 264 64 264H120V344H64C59.594 344 56 347.594 56 352S59.594 360 64 360H120V416C120 420.406 123.594 424 128 424S136 420.406 136 416V360H216V416C216 420.406 219.594 424 224 424S232 420.406 232 416V360H312V416C312 420.406 315.594 424 320 424S328 420.406 328 416V360H384C388.406 360 392 356.406 392 352S388.406 344 384 344H328V264H384C388.406 264 392 260.406 392 256S388.406 248 384 248H328V168H384ZM216 344H136V264H216V344ZM216 248H136V168H216V248ZM312 344H232V264H312V344ZM312 248H232V168H312V248Z"/></svg>
